X: 18618
T: I Will If I Can
R: jig
M: 6/8
K: Amajor
|:Ace fec|e3 ecB|Ace fec|fec ~B3|
Ace fec|efg ~a3|faf ecB|cAA ~A3:|
|:aee fec|fec efg|aee fec|fec ~B3|
aee ~f3|efg ~a3|faf ecB|cAA ~A3:|

